X:3
T:Denis Murphy's
M:12/8
L:1/8
Z:id:dc-slide-8
K:D Major
dcB|A2D FED F2A A2f|g2e f2d e2d Bcd|!
A2D FED F2A A2f|a2f efe d3:|!
d2A| d2e f2f gfe f2f|gfe f2d e2d B2A|!
d2e f2f gfe f2g|a2f efe d3:|!
